Dominus_Dark_Funeral/22/places/folder-locked.svg

<svg xmlns="http://www.w3.org/2000/svg" width="24" height="24" viewBox="0 0 12.7 12.7"><defs><linearGradient id="a"><stop offset="0" stop-color="#216778"/><stop offset="1" stop-color="#5fbcd3"/></linearGradient></defs><path d="M6.317.475l-.326.022c-1.24.152-2.241.979-2.546 2.088-.065.218-.065.305-.087 1.393v1.131H4.36V4.087c0-.87 0-1.088.044-1.219a1.784 1.784 0 0 1 .979-1.175c.348-.174.566-.217.979-.217.392 0 .61.043.936.217.544.218.892.653 1.022 1.154.044.152.044.391.044 1.218V5.11h1V3.956c0-1.088-.021-1.175-.086-1.392C8.929 1.41 7.949.605 6.687.497zM5.012 5.262H2.836a.587.587 0 0 0-.24.217 32.638 32.638 0 0 0-.043 3.264c0 3.112 0 3.177.065 3.264.022.065.088.13.153.174.087.044.152.044 3.568.044 3.895 0 3.612.021 3.764-.218l.066-.087V8.743c0-3.481 0-3.285-.174-3.438-.087-.043-.13-.043-3.612-.065H5.012zm1.37 1.458c.11 0 .218.021.305.065.174.087.349.283.436.435.108.326.043.653-.196.87l-.153.153v.653c0 .609 0 .696-.043.783a.392.392 0 0 1-.37.196.392.392 0 0 1-.37-.218c-.043-.065-.043-.152-.043-.761V8.22l-.11-.087c-.239-.174-.326-.522-.239-.827.087-.37.436-.587.784-.587z" fill="#e6e6e6"/></svg>

<?xml version="1.0" encoding="UTF-8" standalone="no"?>
<svg
   xmlns:dc="http://purl.org/dc/elements/1.1/"
   xmlns:cc="http://creativecommons.org/ns#"
   xmlns:rdf="http://www.w3.org/1999/02/22-rdf-syntax-ns#"
   xmlns:svg="http://www.w3.org/2000/svg"
   xmlns="http://www.w3.org/2000/svg"
   xmlns:sodipodi="http://sodipodi.sourceforge.net/DTD/sodipodi-0.dtd"
   xmlns:inkscape="http://www.inkscape.org/namespaces/inkscape"
   width="24"
   height="24"
   viewBox="0 0 12.7 12.7"
   version="1.1"
   id="svg11"
   sodipodi:docname="folder-locked.svg"
   inkscape:version="0.92.4 (5da689c313, 2019-01-14)">
  <metadata
     id="metadata15">
    <rdf:RDF>
      <cc:Work
         rdf:about="">
        <dc:format>image/svg+xml</dc:format>
        <dc:type
           rdf:resource="http://purl.org/dc/dcmitype/StillImage" />
        <dc:title></dc:title>
      </cc:Work>
    </rdf:RDF>
  </metadata>
  <sodipodi:namedview
     pagecolor="#ffffff"
     bordercolor="#666666"
     borderopacity="1"
     objecttolerance="10"
     gridtolerance="10"
     guidetolerance="10"
     inkscape:pageopacity="0"
     inkscape:pageshadow="2"
     inkscape:window-width="1112"
     inkscape:window-height="480"
     id="namedview13"
     showgrid="false"
     inkscape:zoom="9.8333333"
     inkscape:cx="1.0677966"
     inkscape:cy="12"
     inkscape:window-x="0"
     inkscape:window-y="25"
     inkscape:window-maximized="0"
     inkscape:current-layer="svg11" />
  <defs
     id="defs7">
    <linearGradient
       id="a">
      <stop
         offset="0"
         stop-color="#216778"
         id="stop2" />
      <stop
         offset="1"
         stop-color="#5fbcd3"
         id="stop4" />
    </linearGradient>
  </defs>
  <path
     d="M 6.317,0.475 5.991,0.497 C 4.751,0.649 3.75,1.476 3.445,2.585 3.38,2.803 3.38,2.89 3.358,3.978 V 5.109 H 4.36 V 4.087 c 0,-0.87 0,-1.088 0.044,-1.219 A 1.784,1.784 0 0 1 5.383,1.693 C 5.731,1.519 5.949,1.476 6.362,1.476 c 0.392,0 0.61,0.043 0.936,0.217 C 7.842,1.911 8.19,2.346 8.32,2.847 8.364,2.999 8.364,3.238 8.364,4.065 V 5.11 h 1 V 3.956 C 9.364,2.868 9.343,2.781 9.278,2.564 8.929,1.41 7.949,0.605 6.687,0.497 Z M 5.012,5.262 H 2.836 A 0.587,0.587 0 0 0 2.596,5.479 32.638,32.638 0 0 0 2.553,8.743 c 0,3.112 0,3.177 0.065,3.264 0.022,0.065 0.088,0.13 0.153,0.174 0.087,0.044 0.152,0.044 3.568,0.044 3.895,0 3.612,0.021 3.764,-0.218 L 10.169,11.92 V 8.743 c 0,-3.481 0,-3.285 -0.174,-3.438 C 9.908,5.262 9.865,5.262 6.383,5.24 H 5.012 Z M 6.382,6.72 C 6.492,6.72 6.6,6.741 6.687,6.785 6.861,6.872 7.036,7.068 7.123,7.22 7.231,7.546 7.166,7.873 6.927,8.09 L 6.774,8.243 v 0.653 c 0,0.609 0,0.696 -0.043,0.783 A 0.392,0.392 0 0 1 6.361,9.875 0.392,0.392 0 0 1 5.991,9.657 C 5.948,9.592 5.948,9.505 5.948,8.896 V 8.22 L 5.838,8.133 C 5.599,7.959 5.512,7.611 5.599,7.306 5.686,6.936 6.035,6.719 6.383,6.719 Z"
     id="path9"
     inkscape:connector-curvature="0"
     style="fill:#e6e6e6" />
</svg>
